contributed-vectors/sbpay.svg

<svg width="192" height="192" viewBox="0 0 192 192" fill="none" xmlns="http://www.w3.org/2000/svg">
<rect x="8" y="8" width="176" height="176" rx="88" fill="white"/>
<path d="M55.9607 67.5748L68.5204 90.0244V103.718L55.9754 126.123L55.9607 67.5748Z" fill="#8C72BD"/>
<path d="M104.185 81.8553L115.954 74.642L140.039 74.6196L104.185 96.5843V81.8553Z" fill="#FF837D"/>
<path d="M104.118 67.4426L104.185 97.1651L91.5957 89.4298V44.9999L104.119 67.4426H104.118Z" fill="#F9DE81"/>
<path d="M140.039 74.6195L115.953 74.642L104.118 67.4426L91.5957 44.9999L140.038 74.6195H140.039Z" fill="#F8C18C"/>
<path d="M104.185 126.248V111.827L91.5957 104.239L91.6026 148.713L104.185 126.248Z" fill="#98DC9A"/>
<path d="M115.924 119.1L68.5195 90.0244L55.9607 67.5748L139.988 119.071L115.923 119.1H115.924Z" fill="#9ABEFF"/>
<path d="M91.6035 148.713L104.184 126.248L115.923 119.1L139.987 119.071L91.6035 148.713Z" fill="#71A372"/>
<path d="M55.9754 126.124L91.6986 104.24L79.6886 96.8712L68.5204 103.718L55.9754 126.124Z" fill="#BD9AFF"/>
</svg>

<svg xmlns="http://www.w3.org/2000/svg" width="192" height="192" fill="none"><rect width="176" height="176" x="8" y="8" fill="#fff" rx="88"/><path fill="#8C72BD" d="m55.96 67.575 12.56 22.45v13.693l-12.545 22.405-.014-58.548Z"/><path fill="#FF837D" d="m104.185 81.855 11.769-7.213 24.085-.022-35.854 21.964V81.855Z"/><path fill="#F9DE81" d="m104.118 67.443.067 29.722-12.59-7.735V45l12.524 22.443h-.001Z"/><path fill="#F8C18C" d="m140.039 74.62-24.086.022-11.835-7.2L91.596 45l48.442 29.62h.001Z"/><path fill="#98DC9A" d="M104.185 126.248v-14.421l-12.59-7.588.008 44.474 12.582-22.465Z"/><path fill="#9ABEFF" d="M115.924 119.1 68.519 90.024l-12.558-22.45 84.027 51.497-24.065.029h.001Z"/><path fill="#71A372" d="m91.603 148.713 12.581-22.465 11.739-7.148 24.064-.029-48.383 29.642Z"/><path fill="#BD9AFF" d="M55.975 126.124 91.7 104.24l-12.01-7.369-11.169 6.847-12.545 22.406Z"/></svg>
